X: 1198
T: the Lame Fisherman
R: reel
%S: s:4 b:11(5+6)
B: O'Neill's 1850 #1198
O: Ryan
Z: Trish O'Neil
M: C|
L: 1/8
K: D
(3ABc |: d2FG A2(3(def) | gfed fdBc | d2FG A2 [1 AB | AFEG FDDA :|[2 de | faef d2 |]
|: (3(efg) | afbf afdf | gfed [1 cd (3(efg) | afbf afdf | abag fd :|[2 fdBc | dAFG A2(de) | faef d2 |]
